img/cog.svg

<svg viewBox="0 0 22 22" xmlns="http://www.w3.org/2000/svg"><g fill="none" fill-rule="evenodd"><path d="m20.694 9.383h-.97c-.441 0-.912-.345-1.046-.77l-.56-1.354c-.207-.391-.123-.967.193-1.284l.687-.686c.315-.315.315-.829 0-1.143l-1.146-1.142c-.308-.313-.825-.313-1.141 0l-.685.688c-.315.315-.896.4-1.286.192l-1.348-.56c-.423-.131-.774-.602-.774-1.048v-.968c0-.443-.365-.808-.808-.808h-1.618c-.442 0-.808.365-.808.808v.968c0 .446-.345.917-.772 1.048l-1.347.557c-.396.209-.971.126-1.286-.19l-.689-.687c-.315-.313-.829-.313-1.14 0l-1.144 1.142c-.314.314-.314.828 0 1.143l.685.686c.315.315.404.893.192 1.284l-.554 1.354c-.135.426-.606.772-1.049.772l-.972-.002c-.441 0-.808.364-.808.809v1.616c0 .443.367.807.808.807h.972c.443 0 .914.351 1.047.77l.557 1.353c.207.395.124.971-.192 1.285l-.688.688c-.31.315-.31.829 0 1.142l1.148 1.142c.313.314.827.314 1.14 0l.686-.686c.313-.313.892-.398 1.283-.19l1.353.557c.427.135.773.607.773 1.048v.968c-.003.443.363.808.805.808h1.616c.445 0 .809-.365.809-.808v-.965c0-.444.35-.914.772-1.047l1.353-.558c.393-.21.971-.125 1.284.191l.685.685c.316.314.831.314 1.141 0l1.144-1.143c.317-.315.317-.828 0-1.144l-.687-.685c-.314-.311-.398-.893-.191-1.284l.56-1.353c.134-.421.603-.77 1.046-.77h.968c.447 0 .808-.364.808-.809v-1.618c0-.445-.361-.809-.806-.809m-5.733 1.577c0 2.21-1.789 4-4 4-2.207 0-4-1.79-4-4 0-2.21 1.794-4 4-4 2.211 0 4 1.791 4 4" fill="#f1f2f2"/><path d="m20.694 9.383h-.97c-.441 0-.912-.345-1.046-.77l-.56-1.354c-.207-.391-.123-.967.193-1.284l.687-.686c.315-.315.315-.829 0-1.143l-1.146-1.142c-.308-.313-.825-.313-1.141 0l-.685.688c-.315.315-.896.4-1.286.192l-1.348-.56c-.423-.131-.774-.602-.774-1.048v-.968c0-.443-.365-.808-.808-.808h-1.618c-.442 0-.808.365-.808.808v.968c0 .446-.345.917-.772 1.048l-1.347.557c-.396.209-.971.126-1.286-.19l-.689-.687c-.315-.313-.829-.313-1.14 0l-1.144 1.142c-.314.314-.314.828 0 1.143l.685.686c.315.315.404.893.192 1.284l-.554 1.354c-.135.426-.606.772-1.049.772l-.972-.002c-.441 0-.808.364-.808.809v1.616c0 .443.367.807.808.807h.972c.443 0 .914.351 1.047.77l.557 1.353c.207.395.124.971-.192 1.285l-.688.688c-.31.315-.31.829 0 1.142l1.148 1.142c.313.314.827.314 1.14 0l.686-.686c.313-.313.892-.398 1.283-.19l1.353.557c.427.135.773.607.773 1.048v.968c-.003.443.363.808.805.808h1.616c.445 0 .809-.365.809-.808v-.965c0-.444.35-.914.772-1.047l1.353-.558c.393-.21.971-.125 1.284.191l.685.685c.316.314.831.314 1.141 0l1.144-1.143c.317-.315.317-.828 0-1.144l-.687-.685c-.314-.311-.398-.893-.191-1.284l.56-1.353c.134-.421.603-.77 1.046-.77h.968c.447 0 .808-.364.808-.809v-1.618c0-.445-.361-.809-.806-.809m-5.733 1.577c0 2.21-1.789 4-4 4-2.207 0-4-1.79-4-4 0-2.21 1.794-4 4-4 2.211 0 4 1.791 4 4" stroke="#808285"/></g></svg>

<?xml version="1.0" encoding="UTF-8" standalone="no"?>
<svg width="22px" height="22px" viewBox="0 0 22 22" version="1.1" xmlns="http://www.w3.org/2000/svg" xmlns:xlink="http://www.w3.org/1999/xlink" xmlns:sketch="http://www.bohemiancoding.com/sketch/ns">
    <!-- Generator: Sketch 3.0.4 (8053) - http://www.bohemiancoding.com/sketch -->
    <title>cog</title>
    <desc>Created with Sketch.</desc>
    <defs></defs>
    <g id="Page-1" stroke="none" stroke-width="1" fill="none" fill-rule="evenodd" sketch:type="MSPage">
        <g id="cog" sketch:type="MSArtboardGroup">
            <path d="M20.694,9.383 L19.724,9.383 C19.283,9.383 18.812,9.038 18.678,8.613 L18.118,7.259 C17.911,6.868 17.995,6.292 18.311,5.975 L18.998,5.289 C19.313,4.974 19.313,4.46 18.998,4.146 L17.852,3.004 C17.544,2.691 17.027,2.691 16.711,3.004 L16.026,3.692 C15.711,4.007 15.13,4.092 14.74,3.884 L13.392,3.324 C12.969,3.193 12.618,2.722 12.618,2.276 L12.618,1.308 C12.618,0.865 12.253,0.5 11.81,0.5 L10.192,0.5 C9.75,0.5 9.384,0.865 9.384,1.308 L9.384,2.276 C9.384,2.722 9.039,3.193 8.612,3.324 L7.265,3.881 C6.869,4.09 6.294,4.007 5.979,3.691 L5.29,3.004 C4.975,2.691 4.461,2.691 4.15,3.004 L3.006,4.146 C2.692,4.46 2.692,4.974 3.006,5.289 L3.691,5.975 C4.006,6.29 4.095,6.868 3.883,7.259 L3.329,8.613 C3.194,9.039 2.723,9.385 2.28,9.385 L1.308,9.383 C0.867,9.383 0.5,9.747 0.5,10.192 L0.5,11.808 C0.5,12.251 0.867,12.615 1.308,12.615 L2.28,12.615 C2.723,12.615 3.194,12.966 3.327,13.385 L3.884,14.738 C4.091,15.133 4.008,15.709 3.692,16.023 L3.004,16.711 C2.694,17.026 2.694,17.54 3.004,17.853 L4.152,18.995 C4.465,19.309 4.979,19.309 5.292,18.995 L5.978,18.309 C6.291,17.996 6.87,17.911 7.261,18.119 L8.614,18.676 C9.041,18.811 9.387,19.283 9.387,19.724 L9.387,20.692 C9.384,21.135 9.75,21.5 10.192,21.5 L11.808,21.5 C12.253,21.5 12.617,21.135 12.617,20.692 L12.617,19.727 C12.617,19.283 12.967,18.813 13.389,18.68 L14.742,18.122 C15.135,17.912 15.713,17.997 16.026,18.313 L16.711,18.998 C17.027,19.312 17.542,19.312 17.852,18.998 L18.996,17.855 C19.313,17.54 19.313,17.027 18.996,16.711 L18.309,16.026 C17.995,15.715 17.911,15.133 18.118,14.742 L18.678,13.389 C18.812,12.968 19.281,12.619 19.724,12.619 L20.692,12.619 C21.139,12.619 21.5,12.255 21.5,11.81 L21.5,10.192 C21.5,9.747 21.139,9.383 20.694,9.383 L20.694,9.383 Z M14.961,10.9604952 C14.961,13.1702266 13.1721125,14.96 10.961495,14.96 C8.7548374,14.96 6.961,13.1702266 6.961,10.9604952 C6.961,8.7507639 8.7548374,6.96 10.961495,6.96 C13.1721125,6.96 14.961,8.7507639 14.961,10.9604952 L14.961,10.9604952 Z" id="Fill-1" fill="#F1F2F2" sketch:type="MSShapeGroup"></path>
            <path d="M20.694,9.383 L19.724,9.383 C19.283,9.383 18.812,9.038 18.678,8.613 L18.118,7.259 C17.911,6.868 17.995,6.292 18.311,5.975 L18.998,5.289 C19.313,4.974 19.313,4.46 18.998,4.146 L17.852,3.004 C17.544,2.691 17.027,2.691 16.711,3.004 L16.026,3.692 C15.711,4.007 15.13,4.092 14.74,3.884 L13.392,3.324 C12.969,3.193 12.618,2.722 12.618,2.276 L12.618,1.308 C12.618,0.865 12.253,0.5 11.81,0.5 L10.192,0.5 C9.75,0.5 9.384,0.865 9.384,1.308 L9.384,2.276 C9.384,2.722 9.039,3.193 8.612,3.324 L7.265,3.881 C6.869,4.09 6.294,4.007 5.979,3.691 L5.29,3.004 C4.975,2.691 4.461,2.691 4.15,3.004 L3.006,4.146 C2.692,4.46 2.692,4.974 3.006,5.289 L3.691,5.975 C4.006,6.29 4.095,6.868 3.883,7.259 L3.329,8.613 C3.194,9.039 2.723,9.385 2.28,9.385 L1.308,9.383 C0.867,9.383 0.5,9.747 0.5,10.192 L0.5,11.808 C0.5,12.251 0.867,12.615 1.308,12.615 L2.28,12.615 C2.723,12.615 3.194,12.966 3.327,13.385 L3.884,14.738 C4.091,15.133 4.008,15.709 3.692,16.023 L3.004,16.711 C2.694,17.026 2.694,17.54 3.004,17.853 L4.152,18.995 C4.465,19.309 4.979,19.309 5.292,18.995 L5.978,18.309 C6.291,17.996 6.87,17.911 7.261,18.119 L8.614,18.676 C9.041,18.811 9.387,19.283 9.387,19.724 L9.387,20.692 C9.384,21.135 9.75,21.5 10.192,21.5 L11.808,21.5 C12.253,21.5 12.617,21.135 12.617,20.692 L12.617,19.727 C12.617,19.283 12.967,18.813 13.389,18.68 L14.742,18.122 C15.135,17.912 15.713,17.997 16.026,18.313 L16.711,18.998 C17.027,19.312 17.542,19.312 17.852,18.998 L18.996,17.855 C19.313,17.54 19.313,17.027 18.996,16.711 L18.309,16.026 C17.995,15.715 17.911,15.133 18.118,14.742 L18.678,13.389 C18.812,12.968 19.281,12.619 19.724,12.619 L20.692,12.619 C21.139,12.619 21.5,12.255 21.5,11.81 L21.5,10.192 C21.5,9.747 21.139,9.383 20.694,9.383 L20.694,9.383 Z M14.961,10.9604952 C14.961,13.1702266 13.1721125,14.96 10.961495,14.96 C8.7548374,14.96 6.961,13.1702266 6.961,10.9604952 C6.961,8.7507639 8.7548374,6.96 10.961495,6.96 C13.1721125,6.96 14.961,8.7507639 14.961,10.9604952 L14.961,10.9604952 Z" id="Stroke-2" stroke="#808285" sketch:type="MSShapeGroup"></path>
        </g>
    </g>
</svg>
